icons/map-17.svg

<svg width="16" height="17" viewBox="0 0 16 17" fill="none" xmlns="http://www.w3.org/2000/svg">
<path fill-rule="evenodd" clip-rule="evenodd" d="M6 2.66638C5.90657 2.66638 5.81912 2.69201 5.7443 2.73662L2.25193 4.73226C2.09614 4.82128 2 4.98695 2 5.16638V13.1664C2 13.3446 2.09488 13.5094 2.24904 13.5988C2.40319 13.6883 2.59332 13.6889 2.74807 13.6005L6.01573 11.7333L9.76738 13.6091C9.83228 13.6433 9.90562 13.6636 9.98346 13.6661C9.98897 13.6663 9.99449 13.6664 10 13.6664C10.0934 13.6664 10.1809 13.6408 10.2557 13.5961L13.7481 11.6005C13.9039 11.5115 14 11.3458 14 11.1664V3.16638C14 2.98815 13.9051 2.82339 13.751 2.73393C13.5968 2.64447 13.4067 2.64383 13.2519 2.73226L9.98427 4.5995L6.23261 2.72367C6.16313 2.68709 6.08398 2.66638 6 2.66638ZM10.5 12.3048L13 10.8762V4.02797L10.5 5.45654V12.3048ZM9.5 5.4754L6.5 3.9754V10.8574L9.5 12.3574V5.4754ZM3 5.45654L5.5 4.02797V10.8762L3 12.3048V5.45654Z" fill="#272431"/>
</svg>

<svg xmlns="http://www.w3.org/2000/svg" width="16" height="17" viewBox="0 0 16 17"><path fill-rule="evenodd" d="M6 2.666a.498.498 0 00-.256.07L2.252 4.733A.5.5 0 002 5.166v8a.5.5 0 00.748.434l3.268-1.867 3.751 1.876a.497.497 0 00.489-.013l3.492-1.995a.5.5 0 00.252-.435v-8a.5.5 0 00-.748-.434L9.984 4.6 6.233 2.724A.498.498 0 006 2.666zm4.5 9.639l2.5-1.429V4.028l-2.5 1.429v6.848zm-1-6.83l-3-1.5v6.882l3 1.5V5.475zM3 5.457l2.5-1.429v6.848L3 12.305V5.457z"/></svg>
